X: 39251
T: Taiga
R: waltz
M: 3/4
K: Gmajor
|:EF GE FG|DF GD FG|F2 d3c|B2 BA GF|
EF GE FG|DF GD FG|F2 FE ED|1 G6:|2 G3A Bd||
|:e2 d3G|B3A AG|F2 d3c|B2 BA GF|
e2 d3G|B3A AG|F2 FE ED|1 G3A Bd:|2 G6||

